Numix/24/emotes/face-smile-big.svg

<?xml version="1.0" encoding="UTF-8" standalone="no"?>
<svg
   xmlns:dc="http://purl.org/dc/elements/1.1/"
   xmlns:cc="http://creativecommons.org/ns#"
   xmlns:rdf="http://www.w3.org/1999/02/22-rdf-syntax-ns#"
   xmlns:svg="http://www.w3.org/2000/svg"
   xmlns="http://www.w3.org/2000/svg"
   xmlns:sodipodi="http://sodipodi.sourceforge.net/DTD/sodipodi-0.dtd"
   xmlns:inkscape="http://www.inkscape.org/namespaces/inkscape"
   width="24px"
   height="24px"
   viewBox="0 0 18 18"
   version="1.1"
   id="svg853"
   inkscape:version="0.91 r"
   sodipodi:docname="face-smile-big.svg">
  <metadata
     id="metadata868">
    <rdf:RDF>
      <cc:Work
         rdf:about="">
        <dc:format>image/svg+xml</dc:format>
        <dc:type
           rdf:resource="http://purl.org/dc/dcmitype/StillImage" />
      </cc:Work>
    </rdf:RDF>
  </metadata>
  <defs
     id="defs866" />
  <sodipodi:namedview
     pagecolor="#ffffff"
     bordercolor="#666666"
     borderopacity="1"
     objecttolerance="10"
     gridtolerance="10"
     guidetolerance="10"
     inkscape:pageopacity="0"
     inkscape:pageshadow="2"
     inkscape:window-width="640"
     inkscape:window-height="480"
     id="namedview864" />
  <g
     id="surface1">
    <path
       style=" stroke:none;fill-rule:nonzero;fill:rgb(100%,85.490196%,36.862745%);fill-opacity:1;"
       d="M 15.75 9 C 15.75 12.210938 12.726562 14.8125 9 14.8125 C 5.273438 14.8125 2.25 12.210938 2.25 9 C 2.25 5.789062 5.273438 3.1875 9 3.1875 C 12.726562 3.1875 15.75 5.789062 15.75 9 Z M 15.75 9 "
       id="path856" />
    <path
       style=" stroke:none;fill-rule:nonzero;fill:rgb(39.607843%,39.607843%,39.607843%);fill-opacity:1;"
       d="M 6.75 6.75 C 6.230469 6.75 5.8125 7.167969 5.8125 7.6875 C 5.8125 7.78125 5.828125 7.875 5.855469 7.96875 C 5.980469 7.578125 6.339844 7.3125 6.75 7.3125 C 7.160156 7.3125 7.519531 7.578125 7.644531 7.96875 C 7.671875 7.878906 7.6875 7.785156 7.6875 7.6875 C 7.6875 7.167969 7.269531 6.75 6.75 6.75 Z M 6.75 6.75 "
       id="path858" />
    <path
       style=" stroke:none;fill-rule:nonzero;fill:rgb(39.607843%,39.607843%,39.607843%);fill-opacity:1;"
       d="M 11.25 6.75 C 10.730469 6.75 10.3125 7.167969 10.3125 7.6875 C 10.3125 7.78125 10.328125 7.875 10.355469 7.96875 C 10.480469 7.578125 10.839844 7.3125 11.25 7.3125 C 11.660156 7.3125 12.019531 7.578125 12.144531 7.96875 C 12.171875 7.878906 12.1875 7.785156 12.1875 7.6875 C 12.1875 7.167969 11.769531 6.75 11.25 6.75 Z M 11.25 6.75 "
       id="path860" />
    <path
       style=" stroke:none;fill-rule:nonzero;fill:rgb(39.607843%,39.607843%,39.607843%);fill-opacity:1;"
       d="M 6.414062 10.5 C 6.625 11.582031 7.71875 12.375 9 12.375 C 10.28125 12.375 11.371094 11.582031 11.585938 10.5 L 11.222656 10.5 C 11.066406 11.144531 10.117188 11.625 9 11.625 C 7.882812 11.625 6.933594 11.144531 6.777344 10.5 Z M 6.414062 10.5 "
       id="path862" />
  </g>
</svg>

<svg xmlns="http://www.w3.org/2000/svg" width="24" height="24" viewBox="0 0 18 18">
 <g>
  <path d="m 15.75 9 c 0 3.211 -3.02 5.813 -6.75 5.813 c -3.727 0 -6.75 -2.602 -6.75 -5.813 c 0 -3.211 3.02 -5.813 6.75 -5.813 c 3.727 0 6.75 2.602 6.75 5.813 m 0 0" style="fill:#ffd95d;fill-opacity:1;stroke:none;fill-rule:nonzero"/>
  <path d="m 6.75 6.75 c -0.52 0 -0.938 0.418 -0.938 0.938 c 0 0.094 0.016 0.188 0.043 0.281 c 0.125 -0.391 0.484 -0.656 0.895 -0.656 c 0.41 0 0.77 0.266 0.895 0.656 c 0.027 -0.09 0.043 -0.184 0.043 -0.281 c 0 -0.52 -0.418 -0.938 -0.938 -0.938 m 0 0" style="fill:#646464;fill-opacity:1;stroke:none;fill-rule:nonzero"/>
  <path d="m 11.25 6.75 c -0.52 0 -0.938 0.418 -0.938 0.938 c 0 0.094 0.016 0.188 0.043 0.281 c 0.125 -0.391 0.484 -0.656 0.895 -0.656 c 0.41 0 0.77 0.266 0.895 0.656 c 0.027 -0.09 0.043 -0.184 0.043 -0.281 c 0 -0.52 -0.418 -0.938 -0.938 -0.938 m 0 0" style="fill:#646464;fill-opacity:1;stroke:none;fill-rule:nonzero"/>
  <path d="m 6.414 10.5 c 0.211 1.082 1.305 1.875 2.586 1.875 c 1.281 0 2.371 -0.793 2.586 -1.875 l -0.363 0 c -0.156 0.645 -1.105 1.125 -2.223 1.125 c -1.117 0 -2.066 -0.48 -2.223 -1.125 m -0.363 0" style="fill:#646464;fill-opacity:1;stroke:none;fill-rule:nonzero"/>
 </g>
</svg>
